X:1
T:ສາວໜ້າໜາວ
T:ເນື້ອຮ້ອງ & ທຳນອງ : ຄຳຫຼ້າ ໜໍ່ແກ້ວ ນັກຮ້ອງຕົ້ນສະບັບ : ແກ້ວມະນີຄອນ
T:1965
T:© studiodavong
C:Khamla NOKEO
Z:© studiodavong
%%score ( 1 2 )
L:1/8
Q:1/4=118
M:4/4
K:Ab
V:1 treble nm="Piano" snm="Pno."
V:2 treble 
V:1
"^Rumba Cha Cha""_(Sax...) __________________________________________________________________________________________" z A,2 B, C2 E2 || %1
w: |
"Ab" A4 E2 A2- |"Fm" ABAG FEFG |"Ab" A8 | %4
w: |||
"Fm""^_________________________________________________________________________________________________________" z A,2 B, C2 E2 | %5
w: |
"Ab" A4 E2 A2- |"Fm" ABAG"Eb" FECB, |"Ab" A,3"Eb" C2 E F/E/C/B,/ |:"Ab""^A" A,{E} A,2 B, C2{F} E2 | %9
w: |||* ເມື່ອ ເວ ລາ ໜ້າ|
"Ab"{F} A6 E2 |"Fm"{F} A3 G F2 E2 |"Cm" C8 |"Fm" z2{E} F2 E3 C |"Bbm"{E} B,6 A,B, | %14
w: ໜາວ ເອິກ|ສາວ ໜາວ ຮ້ອນ ນອນ|ສັ່ນ|ໜາວ ຈົນ ສະ|ບັ້ນ ເມື່ອ ເຫ|
"Fm" C3 E F2 A2 |"Eb" E8 ||"^B" z A,2 B, C2 E2 |"Ab"{F} A6{A} B2 |"Fm" A3 G F2 E2 |"Cm"{E} C8 | %20
w: ມັນ ກັບ ຫັນ ພັດ|ມາ...|ຢູ່ ຜູ່ ດຽວ ປ່ຽວ|ເຫງົາ ໜາວ|ໆ ໜາວ ຈວນ ຈຽນ|ບ້າ|
"Fm" z2{E} F2 E2 C2 |"Bbm" B,6 A,B, |"Eb" C2 E B2 A{F} E2 |"Ab"{F} A8 ||"Ab7""^C" z2{B} c2 B2 F2 | %25
w: ໜາວ ຍາມ ນິ|ທຣາ ປ່ຽວ ອຸ|ຣາ ສຸດ ຫາ ໃດ ແກ້|ໜາວ...|ໜາວ ລົມ ຫົ່ມ|
"Db"{A} F6 F2 | A3 E A,2 B,2 |"Ab"{B,} C8 |"Cm" z2 F2{E} F2 C2 |"Bbm"{E} B,6 A2 |"Db" F3 F G2 B2 | %31
w: ຜ້າ ໃຜ|ວ່າ ຈະ ອຸ່ນ ເອິກ|ສາວ|ໜາວ ຫຼາຍ ໃຈ|ເສົ້າ ຄອຍ|ບ່າວ ບໍ່ ມາ ຈັກ|
"Eb" E8 ||"^D" z A,2 B, C2 E2 |"Ab"{F} A6{A} B2 |"Fm" A3 G F2 E2 |"Cm"{E} C8 |"Fm" z2{E} F2 E2 C2 | %37
w: ທີ...|ຫາກ ໄດ້ ຍິນ ເພງ|ຫວນ ຂໍ|ຊວນ ເຊີນ ມາ ທາງ|ພີ້|ສົງ ສານ ຂ້າ|
"Bbm" B,6 A,B, |"Eb" C2 c B2 A{F} E2!dacoda! ||1"Ab""_(Solo verse A & B)"{F} A8 :|2 %40
w: ທີ ຊ່ອຍ ນ້ອງ|ທີ ວິ ວາ ກັນ ແກ້|ໜາວ...|
O"Ab""^E"{F} A8 ||"Fm" C2 E"Eb" B2 AFE |"Ab" A2 z (A/G/ F/E/F/G/ F/E/F/G/ | %43
w: ໜາວ...|||
"Ab" A) z .[EAc].[EAc] .[EAc] z z2!fine! |] %44
w: |
V:2
 x8 || x8 | x8 | x8 | x8 | x8 | x8 | x8 |: x8 | x8 | x8 | x8 | x8 | x8 | x8 | x8 || x8 | x8 | x8 | %19
 x8 | x8 | x8 | x8 | x8 || x8 | x8 | x8 | x8 | x8 | x8 | x8 | x8 || x8 | x8 | x8 | x8 | x8 | x8 | %38
 x8 ||1 x8 :|2 x4 z"_(Sax...)" A,2 B, || x8 | x8 | x8 |] %44

